src/assets/images/clients/emirates_logo.svg

<svg width="130" height="45" viewBox="0 0 130 45" fill="none" xmlns="http://www.w3.org/2000/svg">
<g clip-path="url(#clip0_615_5197)">
<path d="M22.6517 3.80136C21.9322 4.73405 21.5325 5.87994 21.5325 7.05247C21.5325 7.45219 21.5325 16.9124 21.5325 17.2588C21.4792 18.0316 21.186 18.7511 20.7064 19.364C20.4399 19.6305 18.8676 21.0429 18.7344 21.2028L19.6138 21.2294C19.9069 20.9629 22.9448 18.2715 23.238 17.8984C24.1174 16.939 24.6237 15.6866 24.6237 14.3808C24.6237 13.9544 24.6237 4.97389 24.6237 4.57416C24.597 3.58817 24.9701 2.60218 25.663 1.88267C26.036 1.48294 27.2086 0.496954 27.4218 0.257118L26.4891 0.230469C26.3025 0.470305 22.9715 3.48158 22.6517 3.80136Z" fill="#99BAFF"/>
<path d="M15.1641 40.9228L18.8682 44.1473H21.3465C23.7182 44.1473 26.01 43.2146 27.6888 41.5357C29.2078 40.0168 29.7674 37.9648 29.7674 36.0461V30.7431C29.7408 29.5439 29.2344 28.398 28.3284 27.5986C28.1685 27.4387 27.0759 26.3994 27.0759 26.3994V30.4766C27.0759 30.4766 28.2751 31.7025 28.4883 31.9423C29.5809 33.1148 29.5809 35.2467 26.0899 38.631C25.477 39.2173 23.7449 40.8695 21.3465 40.8695L15.1641 40.9228Z" fill="#99BAFF"/>
<path d="M25.4766 19.151C25.0769 19.5774 24.6771 20.6433 24.6771 21.6027V23.6013H26.7024C27.5019 23.6013 28.5412 22.8818 28.7544 22.5087C28.7544 22.4821 28.7544 20.5101 28.7544 20.5101C29.0475 20.9365 29.4206 21.3362 29.8469 21.656C30.0601 21.3895 31.9255 19.151 33.4711 19.1244C36.056 19.0977 35.4698 22.3755 34.4305 23.4148C34.084 23.7612 32.5651 25.1469 32.0854 25.6C30.8596 26.7725 28.7544 26.2129 28.7544 23.2016C28.7544 23.2016 26.5159 25.3335 26.1695 25.6266C25.823 25.9197 24.6771 27.1456 24.6771 27.1456V32.4486C24.6771 34.9802 23.851 35.8329 23.1582 36.6058C22.8917 36.8989 20.0403 39.5104 19.6406 39.8036L18.7079 39.8302C18.7079 39.8302 20.3867 38.3113 20.7065 37.9648C21.0796 37.5651 21.5326 36.7656 21.5326 35.4332C21.5326 35.0868 21.4793 27.1189 21.4793 27.1189H8.4749C3.94467 27.1189 2.98533 22.109 2.95868 20.7499C2.95868 20.3502 2.95868 16.353 2.95868 15.7134C2.95868 14.8873 2.42571 13.5016 1.59961 13.0752H2.87873C3.03863 13.1285 3.83808 13.4483 3.83808 16.5395C3.83808 16.5395 3.78478 20.1104 3.78478 20.3236C3.78478 21.8958 5.03725 23.6813 6.8227 23.6813L21.5326 23.6546C21.5326 23.2549 21.9324 21.7626 22.6519 20.9631C23.0516 20.5101 26.2228 17.6321 26.5692 17.3389H27.5019C27.3686 17.4722 25.823 18.8313 25.5032 19.2043L25.4766 19.151ZM30.3 22.1623C30.673 22.6686 31.0994 23.1749 31.5524 23.628C33.1513 24.9071 33.8975 23.5214 32.8316 22.0824C32.4052 21.4961 30.7796 21.656 30.3 22.1623Z" fill="#99BAFF"/>
<path d="M14.5226 31.6495C14.5226 32.369 12.2575 34.2611 12.1242 34.3677C11.9643 33.5949 11.3781 32.7688 9.69922 31.0633L12.1775 28.585C13.8564 30.2638 14.5226 30.6369 14.5226 31.6495V31.6495Z" fill="#99BAFF"/>
<path d="M18.8412 3.16208C19.3476 3.6684 20.4135 5.00082 19.7739 5.66703C19.2143 6.22664 18.3349 7.13269 18.3349 7.13269C18.2816 6.81291 17.4555 6.01346 17.4555 6.01346C17.4555 6.01346 17.4555 8.41182 17.4555 8.70495C17.4289 9.79753 17.0291 10.0907 17.0291 10.0907C17.0291 10.0907 19.0278 12.0627 19.0278 14.6209C19.0278 15.8467 19.0278 16.9926 19.0278 17.2324C19.0544 17.7121 18.8679 18.2184 18.5215 18.5649C18.3349 18.7781 16.4962 20.6434 16.203 20.8833C15.7767 21.2564 15.2437 21.4695 14.6841 21.4429H7.78213C6.68955 21.4429 5.57031 20.5901 5.57031 19.7374C5.57031 19.5242 5.59696 17.1791 5.59696 17.1791C5.94339 17.5789 6.31647 18.0585 7.16922 18.0585C7.86208 18.0585 8.55494 17.5256 8.74148 17.3124C8.92802 17.0992 13.9646 11.8761 13.9646 11.8761C13.9646 11.8761 11.6195 9.69094 10.0739 8.65165C9.32774 8.14533 8.3151 8.78489 8.15521 9.4511C7.67554 11.5297 8.15521 14.6742 8.15521 14.6742L6.26317 12.7822C5.49037 12.0094 5.51702 10.2772 6.44971 9.37116C6.58295 9.21127 7.99532 7.66566 9.75412 7.66566H12.4989C14.3376 7.66566 16.3629 9.5044 16.3629 9.5044C16.5228 9.31786 16.6294 9.10467 16.6561 8.86484C16.6561 7.90549 16.6294 5.3739 16.6294 5.3739C15.2437 3.98818 15.0572 2.54916 15.7234 1.88295C16.9758 0.630476 17.4289 0.204102 17.4289 0.204102C17.4289 0.204102 17.3756 1.72306 18.8412 3.16208V3.16208ZM10.1805 17.0193C9.48763 17.7388 9.38104 17.8987 8.74148 18.2984H16.5228C18.628 18.2984 18.2017 16.9926 17.8286 16.3264C17.0558 14.9673 14.6041 12.4624 14.6041 12.4624C14.6041 12.4624 10.3137 16.886 10.1805 17.0193V17.0193Z" fill="#99BAFF"/>
<path d="M1.30647 24.1074H0.0273438C0.0273438 24.1074 1.38641 24.8536 1.38641 26.7989V33.008C1.38641 37.0319 4.71747 40.7627 8.76803 40.7627H12.1524C14.1777 40.7627 14.8972 40.283 16.123 39.1904C16.576 38.7907 17.1623 38.1245 17.3755 37.8847C18.0683 37.0852 18.8411 36.4456 18.8411 34.3671V32.3418C18.8411 30.583 17.8285 29.8635 17.3222 29.3572C17.0024 29.0374 16.1496 28.2113 16.1496 28.2113V32.3684C16.1496 32.3684 17.0024 33.2745 17.3755 33.5676C19.1343 34.9533 17.7485 37.3517 16.0963 37.3517C15.7766 37.3517 9.14111 37.3517 8.66144 37.3517C5.9433 37.405 2.23916 34.98 2.23916 30.8761V27.5184C2.26581 24.1074 1.30647 24.1074 1.30647 24.1074V24.1074Z" fill="#99BAFF"/>
<path d="M9.46008 31.6759C9.46008 32.3954 7.19497 34.2874 7.06173 34.394C6.90184 33.6212 6.31557 32.7951 4.63672 31.0896L7.11502 28.6113C8.76722 30.2635 9.46008 30.6366 9.46008 31.6759V31.6759Z" fill="#99BAFF"/>
<path d="M51.5744 29.7337H47.5771C46.3247 29.7337 46.4312 28.6944 46.298 27.815V22.1122C46.298 22.1122 47.1774 22.0856 48.1634 22.0856C49.256 22.0856 50.6417 21.9257 51.9741 22.6718C51.2813 21.2062 49.789 20.3001 48.1634 20.3534H46.3247V18.5147C46.3247 18.5147 46.3247 16.9158 45.9249 16.4628H48.5631C50.8282 16.4628 52.587 16.4361 54.4258 17.6353C54.4258 17.6353 54.0793 14.624 49.6824 14.624H41.1016C41.1016 14.624 42.5939 15.9031 42.5406 18.488L42.5939 28.8809C42.5939 31.4925 43.6332 31.5724 43.6332 31.5724H52.0807C53.9994 31.5724 54.6656 30.2133 54.6656 29.4672L54.6923 28.4812C54.6923 28.4812 54.0793 29.7337 51.5744 29.7337V29.7337Z" fill="#99BAFF"/>
<path d="M74.0643 28.8537V21.5787C74.0643 18.754 71.7726 18.0078 70.0404 18.0078C67.7753 18.0078 67.0825 19.8998 66.7893 20.5661C66.283 18.8073 64.4976 18.0078 63.0585 18.0078C60.3138 18.0078 59.6209 20.6194 59.6209 20.6194C59.6209 20.6194 59.5676 18.0878 57.3558 18.0878H55.1973C55.1973 18.0878 56.4497 18.5941 56.4497 20.7792V28.8537C56.4497 31.5186 57.5157 31.5719 57.5157 31.5719H61.0866C60.2338 30.9323 59.7275 29.9197 59.7275 28.8271V21.6586C59.7808 21.3389 60.3138 20.2729 61.8327 20.2729C62.7121 20.2729 63.6715 21.179 63.6448 22.1916V28.8537C63.6448 31.5452 64.7108 31.5719 64.7108 31.5719H68.2816C67.4289 30.9057 66.9226 29.9197 66.9226 28.8271V21.6586C67.269 20.6194 68.3882 20.0331 69.4542 20.3795C70.2536 20.646 70.8132 21.3655 70.8399 22.2183C70.8399 22.2183 70.8399 28.2941 70.8399 28.8537C70.8665 31.5719 71.9058 31.5452 71.9058 31.5452C73.7712 31.5452 75.4767 31.5452 75.4767 31.5452C74.5973 30.9056 74.091 29.9197 74.0643 28.8537Z" fill="#99BAFF"/>
<path d="M80.2998 28.8541C80.2998 29.9201 80.8061 30.9327 81.6588 31.5723C81.6588 31.5723 79.9533 31.5723 78.0879 31.5723C78.0879 31.5723 76.9954 31.5989 76.9954 28.8808V20.753C76.9954 18.6211 75.7695 18.0615 75.7695 18.0615H77.9281C78.7009 18.0615 80.2731 18.0615 80.2731 21.0728V28.8008L80.2998 28.8541Z" fill="#99BAFF"/>
<path d="M91.2792 19.1005C91.2792 19.1005 90.9328 18.1412 89.4671 18.1412C87.2287 18.1412 86.6957 20.806 86.6957 20.806C86.5092 18.7008 85.9495 18.0879 84.3773 18.0879H82.2188C82.2188 18.0879 83.4712 18.5942 83.4712 20.7794V28.8539C83.4712 31.5187 84.5372 31.572 84.5372 31.572H88.1081C87.2553 30.9324 86.749 29.9198 86.749 28.8539V22.2184C86.8289 21.6588 87.1487 21.1525 87.6284 20.8593C88.8276 20.0599 90.3998 20.2997 91.3325 21.3923L91.2792 19.1005Z" fill="#99BAFF"/>
<path d="M107.881 19.5806C108.627 19.5806 109.347 19.7671 109.986 20.1136V18.0883H107.002V14.9971C106.362 16.0097 105.536 16.9158 104.603 17.6886C103.591 18.5147 101.459 19.554 101.459 19.554L103.724 19.5806V28.9608C103.724 31.5724 104.817 31.5724 104.817 31.5724C106.762 31.5724 108.361 31.5724 108.361 31.5724C107.508 30.9595 107.002 29.9735 106.975 28.9342V19.5806C107.935 19.5806 107.295 19.5806 107.881 19.5806V19.5806Z" fill="#99BAFF"/>
<path d="M118.7 23.6577C116.701 25.7363 115.129 25.4165 113.877 26.9621C113.877 26.9621 114.09 29.0407 115.662 29.7602C116.195 30 118.407 30.7995 119.819 28.3478V30.533C119.819 30.533 118.913 31.5989 116.008 31.5989C112.518 31.5989 110.119 28.8542 110.119 25.1234C110.119 21.4459 112.064 18.0615 115.769 18.0349C119.366 17.9816 121.338 20.9129 118.7 23.6577ZM116.515 22.805C117.101 21.7124 117.581 18.9409 115.555 19.1008C113.21 19.2874 113.663 25.4965 113.663 25.4965C114.436 24.6437 115.609 24.4572 116.515 22.805V22.805Z" fill="#99BAFF"/>
<path d="M78.6483 16.9952C79.5543 16.9686 80.2472 16.2224 80.2472 15.343C80.2205 14.437 79.4744 13.7441 78.595 13.7441C77.7156 13.7708 76.9961 14.4903 76.9961 15.3697C76.9961 16.2757 77.7422 16.9952 78.6483 16.9952Z" fill="#99BAFF"/>
<path d="M94.9833 30.0261C94.1839 30.0261 93.5976 29.1734 93.5976 28.3206C93.5976 24.9629 96.3424 24.4833 97.0886 23.6039V29.28C96.7421 29.5465 96.4223 30.0261 94.9833 30.0261V30.0261ZM97.0886 22.2981C96.2625 23.7371 89.8135 24.0569 90.7995 29.0402C91.1992 31.0121 92.505 31.5984 94.1572 31.5984C95.7561 31.5984 96.7421 30.7723 97.1418 29.9728C97.3817 31.4652 98.1545 31.5718 98.1545 31.5718C100.02 31.5718 101.725 31.5718 101.725 31.5718C100.873 30.9322 100.34 29.9462 100.34 28.8803V21.2855C100.34 19.4734 98.341 18.061 96.2092 18.061C95.01 18.0344 93.8641 18.3808 92.8781 19.047V21.3921C92.8781 21.3921 93.6243 19.5267 95.463 19.5267C97.2751 19.5267 97.4083 20.4327 97.4083 20.8857C97.435 21.3654 97.355 21.8717 97.0886 22.2981V22.2981Z" fill="#99BAFF"/>
<path d="M126.589 27.8944C126.615 28.8537 125.763 30.1062 123.951 30.1062C122.085 30.1062 121.339 28.2142 121.339 28.2142V30.6125C122.352 31.2521 123.524 31.5719 124.723 31.5719C127.148 31.5719 129.627 29.7331 129.573 27.1482C129.547 26.2955 129.254 25.4694 128.747 24.8032C127.921 23.7106 126.429 22.9378 125.256 22.2183C124.59 21.8185 124.244 21.0724 124.244 20.8325C124.217 20.3795 124.457 19.4735 126.242 19.4735C128.001 19.4735 128.774 21.3389 128.774 21.3389V19.0737C127.788 18.3809 126.589 18.0078 125.363 18.0078C123.231 18.0078 121.286 19.4202 121.339 21.2323C121.366 22.8312 122.032 23.8438 123.338 24.8298C123.924 25.2562 124.537 25.6293 125.176 25.9757C126.189 26.5353 126.562 27.2282 126.589 27.8944V27.8944Z" fill="#99BAFF"/>
</g>
<defs>
<clipPath id="clip0_615_5197">
<rect width="130" height="44.2857" fill="white"/>
</clipPath>
</defs>
</svg>

<svg xmlns="http://www.w3.org/2000/svg" width="130" height="45" fill="none" xmlns:v="https://vecta.io/nano"><g clip-path="url(#A)" fill="#99baff"><path d="M22.652 3.801a5.34 5.34 0 0 0-1.119 3.251v10.206a3.83 3.83 0 0 1-.826 2.105l-1.972 1.839.879.027 3.624-3.331a5.22 5.22 0 0 0 1.386-3.518V4.574a3.76 3.76 0 0 1 1.039-2.691c.373-.4 1.546-1.386 1.759-1.626L26.489.23c-.187.24-3.518 3.251-3.837 3.571zm-7.488 37.122l3.704 3.224h2.478c2.372 0 4.664-.933 6.342-2.612 1.519-1.519 2.079-3.571 2.079-5.49v-5.303c-.027-1.199-.533-2.345-1.439-3.144l-1.252-1.199v4.077l1.412 1.466c1.093 1.173 1.093 3.304-2.398 6.689-.613.586-2.345 2.239-4.743 2.239l-6.182.053zm10.313-21.772c-.4.426-.8 1.492-.8 2.452v1.999h2.025c.799 0 1.839-.719 2.052-1.093V20.51c.293.426.666.826 1.093 1.146.213-.266 2.079-2.505 3.624-2.532 2.585-.027 1.999 3.251.959 4.29L32.085 25.6c-1.226 1.172-3.331.613-3.331-2.398l-2.585 2.425c-.346.293-1.492 1.519-1.492 1.519v5.303c0 2.532-.826 3.384-1.519 4.157-.267.293-3.118 2.905-3.518 3.198l-.933.027 1.999-1.865c.373-.4.826-1.199.826-2.532l-.053-8.314H8.475c-4.53 0-5.49-5.01-5.516-6.369v-5.036c0-.826-.533-2.212-1.359-2.638h1.279c.16.053.959.373.959 3.464l-.053 3.784c0 1.572 1.252 3.358 3.038 3.358l14.71-.027c0-.4.4-1.892 1.119-2.691.4-.453 3.571-3.331 3.917-3.624h.933l-1.999 1.865-.027-.053zm4.823 3.011c.373.506.799 1.013 1.252 1.466 1.599 1.279 2.345-.107 1.279-1.546-.426-.586-2.052-.426-2.532.08zM14.523 31.65c0 .72-2.265 2.612-2.398 2.718-.16-.773-.746-1.599-2.425-3.304l2.478-2.478c1.679 1.679 2.345 2.052 2.345 3.064h0zm4.318-28.488c.506.506 1.572 1.839.933 2.505l-1.439 1.466c-.053-.32-.879-1.119-.879-1.119v2.691c-.027 1.093-.426 1.386-.426 1.386s1.999 1.972 1.999 4.53v2.611c.027.48-.16.986-.506 1.333-.187.213-2.025 2.078-2.318 2.318-.426.373-.959.586-1.519.56H7.782c-1.093 0-2.212-.853-2.212-1.706l.027-2.558c.346.4.72.879 1.572.879.693 0 1.386-.533 1.572-.746l5.223-5.436s-2.345-2.185-3.891-3.224c-.746-.506-1.759.133-1.919.799-.48 2.079 0 5.223 0 5.223l-1.892-1.892c-.773-.773-.746-2.505.187-3.411.133-.16 1.546-1.705 3.304-1.705h2.745c1.839 0 3.864 1.839 3.864 1.839.16-.187.267-.4.293-.64l-.027-3.491c-1.386-1.386-1.572-2.825-.906-3.491L17.429.204s-.053 1.519 1.412 2.958h0zM10.18 17.019c-.693.72-.799.879-1.439 1.279h7.781c2.105 0 1.679-1.306 1.306-1.972-.773-1.359-3.225-3.864-3.225-3.864l-4.424 4.557h0zm-8.874 7.088H.027s1.359.746 1.359 2.692v6.209c0 4.024 3.331 7.755 7.382 7.755h3.384c2.025 0 2.745-.48 3.971-1.572.453-.4 1.039-1.066 1.252-1.306.693-.8 1.466-1.439 1.466-3.518v-2.025c0-1.759-1.013-2.478-1.519-2.985l-1.173-1.146v4.157s.853.906 1.226 1.199c1.759 1.386.373 3.784-1.279 3.784H8.661c-2.718.053-6.422-2.372-6.422-6.476v-3.358c.027-3.411-.933-3.411-.933-3.411h0z"/><path d="M9.46 31.676c0 .72-2.265 2.611-2.398 2.718-.16-.773-.746-1.599-2.425-3.304l2.478-2.478c1.652 1.652 2.345 2.025 2.345 3.065h0zm42.114-1.942h-3.997c-1.252 0-1.146-1.039-1.279-1.919v-5.703l1.865-.027c1.093 0 2.478-.16 3.811.586-.693-1.466-2.185-2.372-3.811-2.318h-1.839v-1.839s0-1.599-.4-2.052h2.638c2.265 0 4.024-.027 5.863 1.172 0 0-.346-3.011-4.743-3.011h-8.581s1.492 1.279 1.439 3.864l.053 10.393c0 2.612 1.039 2.691 1.039 2.691h8.447c1.919 0 2.585-1.359 2.585-2.105l.027-.986s-.613 1.252-3.118 1.252h0zm22.49-.88v-7.275c0-2.825-2.292-3.571-4.024-3.571-2.265 0-2.958 1.892-3.251 2.558-.506-1.759-2.292-2.558-3.731-2.558-2.745 0-3.438 2.612-3.438 2.612s-.053-2.532-2.265-2.532h-2.159s1.252.506 1.252 2.691v8.075c0 2.665 1.066 2.718 1.066 2.718h3.571a3.42 3.42 0 0 1-1.359-2.745v-7.169c.053-.32.586-1.386 2.105-1.386.879 0 1.839.906 1.812 1.919v6.662c0 2.692 1.066 2.718 1.066 2.718h3.571c-.853-.666-1.359-1.652-1.359-2.745v-7.169a2.01 2.01 0 0 1 2.532-1.279c.799.267 1.359.986 1.386 1.839v6.635c.027 2.718 1.066 2.692 1.066 2.692h3.571a3.41 3.41 0 0 1-1.412-2.692zm6.236 0a3.41 3.41 0 0 0 1.359 2.718h-3.571s-1.093.027-1.093-2.691v-8.128c0-2.132-1.226-2.692-1.226-2.692h2.159c.773 0 2.345 0 2.345 3.011V28.8l.027.053zm10.979-9.753s-.346-.959-1.812-.959c-2.238 0-2.771 2.665-2.771 2.665-.186-2.105-.746-2.718-2.318-2.718h-2.159s1.252.506 1.252 2.691v8.075c0 2.665 1.066 2.718 1.066 2.718h3.571a3.41 3.41 0 0 1-1.359-2.718V22.22a1.91 1.91 0 0 1 .879-1.359c1.199-.799 2.771-.56 3.704.533l-.053-2.292zm16.602.48a4.4 4.4 0 0 1 2.105.533v-2.025h-2.984v-3.091c-.64 1.013-1.466 1.919-2.399 2.692-1.012.826-3.144 1.865-3.144 1.865l2.265.027v9.38c0 2.612 1.093 2.612 1.093 2.612h3.544a3.36 3.36 0 0 1-1.386-2.638v-9.354h.906 0zm10.819 4.077c-1.999 2.079-3.571 1.759-4.823 3.304 0 0 .213 2.079 1.785 2.798.533.24 2.745 1.039 4.157-1.412v2.185s-.906 1.066-3.811 1.066c-3.49 0-5.889-2.745-5.889-6.475 0-3.677 1.945-7.062 5.65-7.088 3.597-.053 5.569 2.878 2.931 5.623zm-2.185-.853c.586-1.093 1.066-3.864-.96-3.704-2.345.187-1.892 6.396-1.892 6.396.773-.853 1.946-1.039 2.852-2.692h0zm-37.867-5.81a1.65 1.65 0 0 0 1.599-1.652 1.65 1.65 0 0 0-1.652-1.599c-.879.027-1.599.746-1.599 1.626 0 .906.746 1.626 1.652 1.626zm16.335 13.031c-.799 0-1.386-.853-1.386-1.706 0-3.358 2.745-3.837 3.491-4.717v5.676c-.347.267-.666.746-2.105.746h0zm2.105-7.728c-.826 1.439-7.275 1.759-6.289 6.742.4 1.972 1.706 2.558 3.358 2.558 1.599 0 2.585-.826 2.985-1.626.24 1.492 1.013 1.599 1.013 1.599h3.57c-.852-.64-1.385-1.626-1.385-2.692v-7.595c0-1.812-1.999-3.224-4.131-3.224-1.199-.027-2.345.32-3.331.986v2.345s.746-1.865 2.585-1.865c1.812 0 1.945.906 1.945 1.359.027.48-.053.986-.32 1.412h0zm29.501 5.596c.026.959-.826 2.212-2.638 2.212-1.866 0-2.612-1.892-2.612-1.892v2.398c1.013.64 2.185.959 3.384.959 2.425 0 4.904-1.839 4.85-4.424a4.09 4.09 0 0 0-.826-2.345c-.826-1.093-2.318-1.865-3.491-2.585-.666-.4-1.012-1.146-1.012-1.386-.027-.453.213-1.359 1.998-1.359 1.759 0 2.532 1.865 2.532 1.865v-2.265c-.986-.693-2.185-1.066-3.411-1.066-2.132 0-4.077 1.412-4.024 3.224.027 1.599.693 2.612 1.999 3.598a16.32 16.32 0 0 0 1.838 1.146c1.013.56 1.386 1.253 1.413 1.919h0z"/></g><defs><clipPath id="A"><path fill="#fff" d="M0 0h130v44.286H0z"/></clipPath></defs></svg>
